; generated by Slic3r 1.2.9 on 2017-12-03 at 12:47:05

; external perimeters extrusion width = 0.20mm
; perimeters extrusion width = 0.40mm
; infill extrusion width = 0.67mm
; solid infill extrusion width = 0.40mm
; top infill extrusion width = 0.20mm

M190 S50 ; set bed temperature
M104 S210 ; set temperature
G28 ; home all axes
G29 ; Auto level
G1 Z5 F5000 ; lift nozzle

M109 S210 ; wait for temperature to be reached
G21 ; set units to millimeters
G90 ; use absolute coordinates
M82 ; use absolute distances for extrusion
G92 E0
G1 E-6.00000 F2400.00000
G92 E0
G1 Z0.150 F7800.000
G1 X20.340 Y20.340 F7800.000
G1 E6.00000 F2400.00000
G1 X24.214 Y16.466 E6.09047 F1500.000
G1 X26.081 Y15.160 E6.12808
G1 X28.282 Y14.575 E6.16569
G1 X30.551 Y14.781 E6.20330
G1 X33.457 Y16.466 E6.25877 F1500.000
G1 X193.534 Y176.543 E9.99681
G1 X194.840 Y178.410 E10.03442
G1 X195.425 Y180.611 E10.07204
G1 X195.219 Y182.880 E10.10965
G1 X193.534 Y185.786 E10.16512
G1 X175.786 Y203.534 E10.57957
G1 X173.919 Y204.840 E10.61718
G1 X171.718 Y205.425 E10.65479
G1 X169.449 Y205.219 E10.69241
G1 X166.543 Y203.534 E10.74787
G1 X6.466 Y43.457 E14.48591
G1 X5.160 Y41.590 E14.52352
G1 X4.575 Y39.389 E14.56113
G1 X4.781 Y37.120 E14.59875
G1 X6.466 Y34.214 E14.65422
G1 X20.297 Y20.382 E14.97721
G1 X20.487 Y20.572 F7800.000
G1 X24.403 Y16.655 E15.06867 F1500.000
G1 X26.236 Y15.384 E15.10549
G1 X28.398 Y14.835 E15.14232
G1 X30.615 Y15.077 E15.17915
G1 X33.267 Y16.655 E15.23011 F1500.000
G1 X193.345 Y176.733 E18.96815
G1 X194.616 Y178.565 E19.00498
G1 X195.165 Y180.727 E19.04181
G1 X194.923 Y182.944 E19.07863
G1 X193.345 Y185.597 E19.12960
G1 X175.596 Y203.345 E19.54405
G1 X173.764 Y204.616 E19.58088
G1 X171.602 Y205.165 E19.61771
G1 X169.385 Y204.923 E19.65453
G1 X166.733 Y203.345 E19.70550
G1 X6.655 Y43.267 E23.44354
G1 X5.384 Y41.435 E23.48036
G1 X4.835 Y39.273 E23.51719
G1 X5.077 Y37.056 E23.55402
G1 X6.655 Y34.403 E23.60498
G1 X20.444 Y20.614 E23.92698
G1 X23.077 Y23.247 F7800.000
G1 X27.782 Y18.543 E24.03683 F1500.000
G1 X29.889 Y18.543 E24.07164
G1 X30.655 Y19.309 E24.08952
G1 X191.457 Y180.111 E27.84448 F1500.000
G1 X191.457 Y182.218 E27.87928
G1 X172.218 Y201.457 E28.32853
G1 X170.111 Y201.457 E28.36333
G1 X8.543 Y39.889 E32.13617
G1 X8.543 Y37.782 E32.17097
G1 X23.035 Y23.290 E32.50938
G1 X23.224 Y23.479 F7800.000
G1 X27.893 Y18.811 E32.61839 F1500.000
G1 X29.778 Y18.811 E32.64953
G1 X191.189 Y180.222 E36.41871 F1500.000
G1 X191.189 Y182.107 E36.44985
G1 X173.835 Y199.462 E36.85509
G1 X173.668 Y199.462 E36.85784
G1 X173.512 Y199.618 E36.86151
G1 X173.512 Y199.785 E36.86426
G1 X172.107 Y201.189 E36.89705
G1 X170.222 Y201.189 E36.92819
G1 X8.811 Y39.778 E40.69737
G1 X8.811 Y37.893 E40.72850
G1 X10.215 Y36.488 E40.76129
G1 X10.382 Y36.488 E40.76405
G1 X10.538 Y36.331 E40.76771
G1 X10.538 Y36.165 E40.77046
G1 X23.182 Y23.521 E41.06571
G1 X23.371 Y23.711 F7800.000
G1 X28.003 Y19.079 E41.17387 F1500.000
G1 X29.667 Y19.079 E41.20135
G1 X30.329 Y19.740 E41.21679
G1 X190.921 Y180.333 E44.96686 F1500.000
G1 X190.921 Y181.997 E44.99434
G1 X173.724 Y199.194 E45.39592
G1 X173.401 Y199.194 E45.40126
G1 X173.244 Y199.351 E45.40492
G1 X173.244 Y199.674 E45.41027
G1 X171.996 Y200.922 E45.43939
G1 X170.333 Y200.921 E45.46687
G1 X9.079 Y39.667 E49.23238
G1 X9.079 Y38.003 E49.25986
G1 X10.326 Y36.756 E49.28898
G1 X10.649 Y36.756 E49.29433
G1 X10.806 Y36.599 E49.29799
G1 X10.806 Y36.276 E49.30333
G1 X23.329 Y23.753 E49.59575
G1 X23.518 Y23.943 F7800.000
G1 X28.114 Y19.346 E49.70308 F1500.000
G1 X29.557 Y19.346 E49.72689
G1 X190.654 Y180.443 E53.48874 F1500.000
G1 X190.654 Y181.886 E53.51256
G1 X173.613 Y198.926 E53.91047
G1 X173.133 Y198.926 E53.91840
G1 X172.976 Y199.083 E53.92207
G1 X172.976 Y199.563 E53.93000
G1 X171.886 Y200.654 E53.95547
G1 X170.443 Y200.654 E53.97928
G1 X9.346 Y39.557 E57.74113
G1 X9.346 Y38.114 E57.76494
G1 X10.437 Y37.024 E57.79040
G1 X10.917 Y37.024 E57.79834
G1 X11.074 Y36.867 E57.80200
G1 X11.074 Y36.387 E57.80993
G1 X23.476 Y23.985 E58.09953
G1 X23.665 Y24.174 F7800.000
G1 X28.225 Y19.614 E58.20602 F1500.000
G1 X29.446 Y19.614 E58.22616
G1 X29.898 Y20.066 E58.23672
G1 X190.386 Y180.554 E61.98435 F1500.000
G1 X190.386 Y181.775 E62.00450
G1 X173.502 Y198.658 E62.39875
G1 X172.865 Y198.658 E62.40928
G1 X172.708 Y198.815 E62.41294
G1 X172.708 Y199.452 E62.42346
G1 X171.775 Y200.386 E62.44526
G1 X170.554 Y200.386 E62.46541
G1 X9.614 Y39.446 E66.22360
G1 X9.614 Y38.225 E66.24375
G1 X10.548 Y37.292 E66.26555
G1 X11.185 Y37.292 E66.27607
G1 X11.342 Y37.135 E66.27973
G1 X11.342 Y36.498 E66.29026
G1 X23.623 Y24.217 E66.57703
G1 X23.812 Y24.406 F7800.000
G1 X28.336 Y19.882 E66.68268 F1500.000
G1 X29.335 Y19.882 E66.69916
G1 X190.118 Y180.665 E70.45369 F1500.000
G1 X190.118 Y181.664 E70.47017
G1 X173.391 Y198.390 E70.86076
G1 X172.597 Y198.390 E70.87388
G1 X172.440 Y198.547 E70.87754
G1 X172.440 Y199.341 E70.89065
G1 X171.664 Y200.118 E70.90879
G1 X170.665 Y200.118 E70.92528
G1 X9.882 Y39.335 E74.67980
G1 X9.882 Y38.336 E74.69628
G1 X10.659 Y37.560 E74.71442
G1 X11.453 Y37.560 E74.72754
G1 X11.610 Y37.403 E74.73120
G1 X11.610 Y36.608 E74.74431
G1 X23.770 Y24.449 E75.02827
G1 X23.959 Y24.638 F7800.000
G1 X28.447 Y20.150 E75.13307 F1500.000
G1 X29.224 Y20.150 E75.14589
G1 X29.519 Y20.445 E75.15278
G1 X189.850 Y180.776 E78.89675 F1500.000
G1 X189.850 Y181.553 E78.90957
G1 X173.281 Y198.122 E79.29650
G1 X172.329 Y198.122 E79.31220
G1 X172.173 Y198.279 E79.31587
G1 X172.173 Y199.230 E79.33157
G1 X171.553 Y199.850 E79.34605
G1 X170.776 Y199.850 E79.35887
G1 X10.150 Y39.224 E83.10973
G1 X10.150 Y38.447 E83.12255
G1 X10.770 Y37.827 E83.13702
G1 X11.721 Y37.827 E83.15273
G1 X11.878 Y37.671 E83.15639
G1 X11.878 Y36.719 E83.17210
G1 X23.917 Y24.680 E83.45323
G1 X24.106 Y24.870 F7800.000
G1 X28.558 Y20.418 E83.55719 F1500.000
G1 X29.113 Y20.418 E83.56635
G1 X189.582 Y180.887 E87.31355 F1500.000
G1 X189.582 Y181.442 E87.32270
G1 X173.170 Y197.855 E87.70597
G1 X172.615 Y197.855 E87.71512
G1 X12.145 Y37.385 E91.46232
G1 X12.145 Y36.830 E91.47148
G1 X24.064 Y24.912 E91.74979
G1 X24.253 Y25.101 F7800.000
G1 X28.669 Y20.685 E91.85291 F1500.000
G1 X29.002 Y20.685 E91.85841
G1 X29.140 Y20.824 E91.86163
G1 X189.315 Y180.998 E95.60194 F1500.000
G1 X189.315 Y181.331 E95.60743
G1 X173.059 Y197.587 E95.98703
G1 X172.726 Y197.587 E95.99253
G1 X12.413 Y37.274 E99.73606
G1 X12.413 Y36.941 E99.74156
G1 X24.211 Y25.144 E100.01704
G1 X24.400 Y25.333 F7800.000
G1 X28.780 Y20.953 E100.11933 F1500.000
G1 X28.891 Y20.953 E100.12116
G1 X189.047 Y181.109 E103.86103 F1500.000
G1 X189.047 Y181.220 E103.86286
G1 X172.948 Y197.319 E104.23880
G1 X172.837 Y197.319 E104.24063
G1 X12.681 Y37.163 E107.98050
G1 X12.681 Y37.052 E107.98233
G1 X24.357 Y25.376 E108.25499
G1 F6240
G1 X28.780 Y20.953 E105.96973
G1 F6240
G1 X28.891 Y20.953 E105.92919
G1 E102.25499 F2400.00000
G92 E0
G1 X11.537 Y38.197 F7800.000
G1 E6.00000 F2400.00000
G1 X171.905 Y198.565 E9.74483 F1500.000
G1 X171.905 Y199.120 E9.75399
G1 X171.442 Y199.582 E9.76480
G1 X170.887 Y199.582 E9.77396
G1 X10.418 Y39.113 E13.52115
G1 X10.418 Y38.558 E13.53031
G1 X10.880 Y38.095 E13.54112
G1 X11.435 Y38.095 E13.55028
G1 X11.494 Y38.154 E13.55166 F1500.000
G1 X11.324 Y38.363 F7800.000
G1 X152.418 Y179.456 E16.84639 F1500.000
G1 X171.637 Y198.676 E17.29519 F1500.000
G1 X171.637 Y199.009 E17.30069
G1 X171.331 Y199.315 E17.30783
G1 X170.998 Y199.315 E17.31333
G1 X10.685 Y39.002 E21.05686
G1 X10.685 Y38.669 E21.06236
G1 X10.991 Y38.363 E21.06950
G1 X11.264 Y38.363 E21.07401
G1 X11.213 Y38.631 F7800.000
G1 X171.369 Y198.787 E24.81388 F1500.000
G1 X171.369 Y198.898 E24.81571
G1 X171.220 Y199.047 E24.81919
G1 X171.109 Y199.047 E24.82102
G1 X10.953 Y38.891 E28.56089
G1 X10.953 Y38.780 E28.56273
G1 X11.102 Y38.631 E28.56621
G1 X11.153 Y38.631 E28.56705
G1 F6240
G1 X22.186 Y49.660 E22.86705
G1 E22.56705 F2400.00000
G92 E0
G1 X13.027 Y37.108 F7800.000
G1 E6.00000 F2400.00000
G1 X28.835 Y21.299 E6.36915 F1500.000
G1 X188.701 Y181.165 E10.10224
G1 X172.892 Y196.973 E10.47139 F1500.000
G1 X13.069 Y37.150 E14.20348
G1 X13.413 Y37.004 F7800.000
G1 X13.406 Y37.108 F7800.000
G1 X28.835 Y21.678 E14.56379 F1500.000
G1 X188.322 Y181.165 E18.28803
G1 X172.892 Y196.594 E18.64834 F1500.000
G1 X13.448 Y37.150 E22.37159
G1 X13.784 Y37.108 F7800.000
G1 X28.835 Y22.057 E22.72305 F1500.000
G1 X187.943 Y181.165 E26.43844
G1 X172.892 Y196.216 E26.78991 F1500.000
G1 X13.827 Y37.150 E30.50431
G1 X147.071 Y170.016 F7800.000
G1 X14.163 Y37.108 E33.60791 F1500.000
G1 X28.835 Y22.435 E33.95053
G1 X187.565 Y181.165 E37.65708
G1 X172.892 Y195.837 E37.99970 F1500.000
G1 X147.114 Y170.058 E38.60167
G1 X172.949 Y195.610 F7800.000
G1 X14.390 Y37.051 E42.35260 F1500.000
G1 X14.582 Y36.859 E42.35714
G1 X173.141 Y195.418 E46.10808
G1 X173.333 Y195.226 E46.11262
G1 X14.774 Y36.667 E49.86355
G1 X14.966 Y36.475 E49.86809
G1 X173.525 Y195.034 E53.61903
G1 X173.716 Y194.842 E53.62357
G1 X15.158 Y36.284 E57.37450
G1 X15.350 Y36.092 E57.37904
G1 X173.908 Y194.650 E61.12998
G1 X174.100 Y194.459 E61.13452
G1 X15.541 Y35.900 E64.88546
G1 X15.733 Y35.708 E64.88999
G1 X174.292 Y194.267 E68.64093
G1 X174.484 Y194.075 E68.64547
G1 X15.925 Y35.516 E72.39641
G1 X16.117 Y35.324 E72.40095
G1 X174.676 Y193.883 E76.15188
G1 X174.868 Y193.691 E76.15642
G1 X16.309 Y35.132 E79.90736
G1 X16.501 Y34.941 E79.91190
G1 X175.059 Y193.499 E83.66283
G1 X175.251 Y193.307 E83.66737
G1 X16.692 Y34.749 E87.41831
G1 X16.884 Y34.557 E87.42285
G1 X175.443 Y193.116 E91.17379
G1 X175.635 Y192.924 E91.17832
G1 X17.076 Y34.365 E94.92926
G1 X17.268 Y34.173 E94.93380
G1 X175.827 Y192.732 E98.68474
G1 X176.019 Y192.540 E98.68927
G1 X17.460 Y33.981 E102.44021
G1 X17.652 Y33.790 E102.44475
G1 X176.210 Y192.348 E106.19569
G1 X176.402 Y192.156 E106.20023
G1 X17.844 Y33.598 E109.95116
G1 X18.035 Y33.406 E109.95570
G1 X176.594 Y191.965 E113.70664
G1 X176.786 Y191.773 E113.71118
G1 X18.227 Y33.214 E117.46211
G1 X18.419 Y33.022 E117.46665
G1 X176.978 Y191.581 E121.21759
G1 X177.170 Y191.389 E121.22213
G1 X18.611 Y32.830 E124.97307
G1 X18.803 Y32.639 E124.97760
G1 X177.361 Y191.197 E128.72854
G1 X177.553 Y191.005 E128.73308
G1 X18.995 Y32.447 E132.48402
G1 X19.186 Y32.255 E132.48855
G1 X177.745 Y190.814 E136.23949
G1 X177.937 Y190.622 E136.24403
G1 X19.378 Y32.063 E139.99497
G1 X19.570 Y31.871 E139.99951
G1 X178.129 Y190.430 E143.75044
G1 X178.321 Y190.238 E143.75498
G1 X19.762 Y31.679 E147.50592
G1 X19.954 Y31.487 E147.51046
G1 X178.513 Y190.046 E151.26139
G1 X178.704 Y189.854 E151.26593
G1 X20.146 Y31.296 E155.01687
G1 X20.338 Y31.104 E155.02141
G1 X178.896 Y189.662 E158.77235
G1 X179.088 Y189.471 E158.77688
G1 X20.529 Y30.912 E162.52782
G1 X20.721 Y30.720 E162.53236
G1 X179.280 Y189.279 E166.28330
G1 X179.472 Y189.087 E166.28784
G1 X20.913 Y30.528 E170.03877
G1 X21.105 Y30.336 E170.04331
G1 X179.664 Y188.895 E173.79425
G1 X179.855 Y188.703 E173.79879
G1 X21.297 Y30.145 E177.54972
G1 X21.489 Y29.953 E177.55426
G1 X180.047 Y188.511 E181.30520
G1 X180.239 Y188.320 E181.30974
G1 X21.680 Y29.761 E185.06067
G1 X21.872 Y29.569 E185.06521
G1 X180.431 Y188.128 E188.81615
G1 X180.623 Y187.936 E188.82069
G1 X22.064 Y29.377 E192.57163
G1 X22.256 Y29.185 E192.57616
G1 X180.815 Y187.744 E196.32710
G1 X181.007 Y187.552 E196.33164
G1 X22.448 Y28.993 E200.08258
G1 X22.640 Y28.802 E200.08712
G1 X181.198 Y187.360 E203.83805
G1 X181.390 Y187.168 E203.84259
G1 X22.831 Y28.610 E207.59353
G1 X23.023 Y28.418 E207.59807
G1 X181.582 Y186.977 E211.34900
G1 X181.774 Y186.785 E211.35354
G1 X23.215 Y28.226 E215.10448
G1 X23.407 Y28.034 E215.10902
G1 X181.966 Y186.593 E218.85996
G1 X182.158 Y186.401 E218.86449
G1 X23.599 Y27.842 E222.61543
G1 X23.791 Y27.651 E222.61997
G1 X182.349 Y186.209 E226.37091
G1 X182.541 Y186.017 E226.37544
G1 X23.983 Y27.459 E230.12638
G1 X24.174 Y27.267 E230.13092
G1 X182.733 Y185.826 E233.88186
G1 X182.925 Y185.634 E233.88640
G1 X24.366 Y27.075 E237.63733
G1 X24.558 Y26.883 E237.64187
G1 X183.117 Y185.442 E241.39281
G1 X183.309 Y185.250 E241.39735
G1 X24.750 Y26.691 E245.14828
G1 X24.942 Y26.500 E245.15282
G1 X183.500 Y185.058 E248.90376
G1 X183.692 Y184.866 E248.90830
G1 X25.134 Y26.308 E252.65924
G1 X25.325 Y26.116 E252.66377
G1 X183.884 Y184.675 E256.41471
G1 X184.076 Y184.483 E256.41925
G1 X25.517 Y25.924 E260.17019
G1 X25.709 Y25.732 E260.17472
G1 X184.268 Y184.291 E263.92566
G1 X184.460 Y184.099 E263.93020
G1 X25.901 Y25.540 E267.68114
G1 X26.093 Y25.348 E267.68568
G1 X184.652 Y183.907 E271.43661
G1 X184.843 Y183.715 E271.44115
G1 X26.285 Y25.157 E275.19209
G1 X26.477 Y24.965 E275.19663
G1 X185.035 Y183.523 E278.94756
G1 X185.227 Y183.332 E278.95210
G1 X26.668 Y24.773 E282.70304
G1 X26.860 Y24.581 E282.70758
G1 X185.419 Y183.140 E286.45852
G1 X185.611 Y182.948 E286.46305
G1 X27.052 Y24.389 E290.21399
G1 X27.244 Y24.197 E290.21853
G1 X185.803 Y182.756 E293.96947
G1 X185.994 Y182.564 E293.97401
G1 X27.436 Y24.006 E297.72494
G1 X27.628 Y23.814 E297.72948
G1 X186.186 Y182.372 E301.48042
G1 X186.378 Y182.181 E301.48496
G1 X27.819 Y23.622 E305.23589
G1 X28.011 Y23.430 E305.24043
G1 X186.570 Y181.989 E308.99137
G1 X186.762 Y181.797 E308.99591
G1 X28.203 Y23.238 E312.74684
G1 X28.395 Y23.046 E312.75138
G1 X186.954 Y181.605 E316.50232
G1 X187.146 Y181.413 E316.50686
G1 X28.587 Y22.854 E320.25780
G1 X28.779 Y22.663 E320.26233
G1 X187.337 Y181.221 E324.01327
M104 S205 ; set temperature
G1 F6240
G1 X176.306 Y170.190 E318.31327
G1 E318.01327 F2400.00000
G92 E0
G1 Z0.350 F7800.000
G1 X11.122 Y38.800 F7800.000
G1 E6.00000 F2400.00000
G1 X171.200 Y198.878 E12.64540 F3000.000
G1 F6240
G1 X160.169 Y187.847 E6.94540
G1 E6.64540 F2400.00000
G92 E0
G1 X107.233 Y134.839 F7800.000
G1 X107.233 Y134.839 F7800.000
G1 X108.053 Y134.019 F7800.000
G1 X172.056 Y198.022 F7800.000
G1 X172.056 Y198.022 F7800.000
G1 X172.876 Y197.201 F7800.000
G1 X100.521 Y94.288 F7800.000
G1 E6.00000 F2400.00000
G1 X187.398 Y181.165 E9.60658 F3000.000
G1 X172.876 Y195.686 E10.20943 F3000.000
G1 X14.314 Y37.124 E16.79194
G1 X28.835 Y22.602 E17.39480
G1 X100.479 Y94.245 E20.36897
G1 X100.731 Y93.993 F7800.000
G1 X187.903 Y181.165 E23.98779 F3000.000
G1 X172.876 Y196.191 E24.61161 F3000.000
G1 X13.809 Y37.124 E31.21508
G1 X28.835 Y22.097 E31.83890
G1 X100.689 Y93.950 E34.82179
G1 X100.941 Y93.698 F7800.000
G1 X188.408 Y181.165 E38.45285 F3000.000
G1 X172.876 Y196.696 E39.09763 F3000.000
G1 X13.304 Y37.124 E45.72207
G1 X28.835 Y21.592 E46.36685
G1 X100.899 Y93.655 E49.35847
G1 X101.081 Y93.474 F7800.000
G1 X188.772 Y181.165 E50.95987 F3000.000
G1 X172.876 Y197.060 E51.25015 F3000.000
G1 X12.940 Y37.124 E54.17088
G1 X28.835 Y21.228 E54.46116
G1 X101.038 Y93.431 E55.77972
G1 X100.977 Y93.860 F7800.000
G1 X14.869 Y37.452 F7800.000
G1 X29.164 Y23.157 E56.37360 F1500.000
G1 X29.416 Y23.410 E56.38410
G1 X15.122 Y37.705 E56.97798
G1 X15.374 Y37.957 E56.98848
G1 X29.669 Y23.663 E57.58236
G1 X29.922 Y23.915 E57.59286
G1 X15.627 Y38.210 E58.18674
G1 X15.880 Y38.463 E58.19724
G1 X30.174 Y24.168 E58.79113
G1 X30.427 Y24.421 E58.80162
G1 X16.132 Y38.715 E59.39551
G1 X16.385 Y38.968 E59.40601
G1 X30.680 Y24.674 E59.99989
G1 X30.932 Y24.926 E60.01039
G1 X16.638 Y39.221 E60.60427
G1 X16.891 Y39.474 E60.61477
G1 X31.185 Y25.179 E61.20865
G1 X31.438 Y25.432 E61.21915
G1 X17.143 Y39.726 E61.81303
G1 X17.396 Y39.979 E61.82353
G1 X31.691 Y25.684 E62.41741
G1 X31.943 Y25.937 E62.42791
G1 X17.649 Y40.232 E63.02179
G1 X17.901 Y40.484 E63.03229
G1 X32.196 Y26.190 E63.62617
G1 X32.449 Y26.442 E63.63667
G1 X18.154 Y40.737 E64.23056
G1 X18.407 Y40.990 E64.24105
G1 X32.701 Y26.695 E64.83494
G1 X32.954 Y26.948 E64.84543
G1 X18.659 Y41.242 E65.43932
G1 X18.912 Y41.495 E65.44982
G1 X33.207 Y27.200 E66.04370
G1 X33.459 Y27.453 E66.05420
G1 X19.165 Y41.748 E66.64808
G1 X19.417 Y42.000 E66.65858
G1 X33.712 Y27.706 E67.25246
G1 X33.965 Y27.959 E67.26296
G1 X19.670 Y42.253 E67.85684
G1 X19.923 Y42.506 E67.86734
G1 X34.217 Y28.211 E68.46122
G1 X34.470 Y28.464 E68.47172
G1 X20.176 Y42.758 E69.06560
G1 X20.428 Y43.011 E69.07610
G1 X34.723 Y28.717 E69.66998
G1 X34.975 Y28.969 E69.68048
