; generated by Slic3r 1.2.9 on 2017-12-02 at 23:57:02

; external perimeters extrusion width = 0.20mm
; perimeters extrusion width = 0.40mm
; infill extrusion width = 0.67mm
; solid infill extrusion width = 0.40mm
; top infill extrusion width = 0.20mm

M190 S50 ; set bed temperature
M104 S210 ; set temperature
G28 ; home all axes
G29 ; Auto level
G1 Z5 F5000 ; lift nozzle

M109 S210 ; wait for temperature to be reached
G21 ; set units to millimeters
G90 ; use absolute coordinates
M82 ; use absolute distances for extrusion
G92 E0
G1 E-6.00000 F2400.00000
G92 E0
G1 Z0.150 F7800.000
G1 X20.340 Y20.340 F7800.000
G1 E6.00000 F2400.00000
G1 X24.037 Y16.642 E6.08634 F1500.000
G1 X25.904 Y15.337 E6.12395
G1 X28.105 Y14.752 E6.16156
G1 X30.374 Y14.957 E6.19917
G1 X33.280 Y16.642 E6.25465 F1500.000
G1 X193.358 Y176.720 E9.99268
G1 X194.663 Y178.587 E10.03030
G1 X195.248 Y180.788 E10.06791
G1 X195.043 Y183.057 E10.10552
G1 X193.358 Y185.963 E10.16099
G1 X175.963 Y203.358 E10.56718
G1 X174.096 Y204.663 E10.60479
G1 X171.895 Y205.248 E10.64241
G1 X169.626 Y205.043 E10.68002
G1 X166.720 Y203.358 E10.73549
G1 X6.642 Y43.280 E14.47353
G1 X5.337 Y41.413 E14.51114
G1 X4.752 Y39.212 E14.54875
G1 X4.957 Y36.944 E14.58636
G1 X6.642 Y34.037 E14.64183
G1 X20.297 Y20.382 E14.96070
G1 X20.487 Y20.572 F7800.000
G1 X24.227 Y16.832 E15.04803 F1500.000
G1 X26.059 Y15.561 E15.08485
G1 X28.221 Y15.011 E15.12168
G1 X30.438 Y15.254 E15.15851
G1 X33.091 Y16.832 E15.20947 F1500.000
G1 X193.168 Y176.909 E18.94751
G1 X194.439 Y178.742 E18.98434
G1 X194.989 Y180.903 E19.02117
G1 X194.746 Y183.121 E19.05799
G1 X193.168 Y185.773 E19.10896
G1 X175.773 Y203.168 E19.51515
G1 X173.941 Y204.439 E19.55198
G1 X171.779 Y204.989 E19.58881
G1 X169.562 Y204.746 E19.62563
G1 X166.909 Y203.168 E19.67660
G1 X6.832 Y43.091 E23.41464
G1 X5.561 Y41.258 E23.45146
G1 X5.011 Y39.097 E23.48829
G1 X5.254 Y36.879 E23.52512
G1 X6.832 Y34.227 E23.57608
G1 X20.444 Y20.614 E23.89396
G1 X23.077 Y23.247 F7800.000
G1 X27.605 Y18.720 E23.99968 F1500.000
G1 X29.713 Y18.720 E24.03448
G1 X191.280 Y180.287 E27.80732 F1500.000
G1 X191.280 Y182.395 E27.84212
G1 X172.395 Y201.280 E28.28312
G1 X170.287 Y201.280 E28.31792
G1 X8.720 Y39.713 E32.09076
G1 X8.720 Y37.605 E32.12556
G1 X23.035 Y23.290 E32.45985
G1 X23.224 Y23.479 F7800.000
G1 X27.716 Y18.987 E32.56473 F1500.000
G1 X29.602 Y18.987 E32.59587 F1500.000
G1 X191.013 Y180.398 E36.36504
G1 X191.013 Y182.284 E36.39618
G1 X172.284 Y201.013 E36.83351
G1 X170.398 Y201.013 E36.86465
G1 X8.987 Y39.602 E40.63383
G1 X8.987 Y37.716 E40.66497
G1 X23.182 Y23.521 E40.99643
G1 X23.371 Y23.711 F7800.000
G1 X27.827 Y19.255 E41.10047 F1500.000
G1 X29.491 Y19.255 E41.12794
G1 X190.745 Y180.509 E44.89346 F1500.000
G1 X190.745 Y182.173 E44.92093
G1 X172.173 Y200.745 E45.35460
G1 X170.509 Y200.745 E45.38208
G1 X9.255 Y39.491 E49.14759
G1 X9.255 Y37.827 E49.17507
G1 X23.329 Y23.753 E49.50370
G1 X23.518 Y23.942 F7800.000
G1 X27.938 Y19.523 E49.60690 F1500.000
G1 X29.380 Y19.523 E49.63072 F1500.000
G1 X190.477 Y180.620 E53.39257
G1 X190.477 Y182.062 E53.41638
G1 X172.062 Y200.477 E53.84638
G1 X170.620 Y200.477 E53.87020
G1 X9.523 Y39.380 E57.63205
G1 X9.523 Y37.938 E57.65586
G1 X23.476 Y23.985 E57.98167
G1 X23.665 Y24.174 F7800.000
G1 X28.049 Y19.791 E58.08403 F1500.000
G1 X29.269 Y19.791 E58.10418
G1 X190.209 Y180.731 E61.86237 F1500.000
G1 X190.209 Y181.951 E61.88252
G1 X171.951 Y200.209 E62.30886
G1 X170.731 Y200.209 E62.32901
G1 X9.791 Y39.269 E66.08719
G1 X9.791 Y38.049 E66.10734
G1 X23.623 Y24.217 E66.43034
G1 X23.812 Y24.406 F7800.000
G1 X28.160 Y20.059 E66.53185 F1500.000
G1 X29.158 Y20.059 E66.54834 F1500.000
G1 X189.941 Y180.842 E70.30286
G1 X189.941 Y181.841 E70.31935
G1 X171.841 Y199.941 E70.74203
G1 X170.842 Y199.941 E70.75851
G1 X10.059 Y39.158 E74.51303
G1 X10.059 Y38.160 E74.52952
G1 X23.770 Y24.449 E74.84969
G1 X23.959 Y24.638 F7800.000
G1 X28.270 Y20.327 E74.95037 F1500.000
G1 X29.047 Y20.327 E74.96319
G1 X189.673 Y180.953 E78.71405 F1500.000
G1 X189.673 Y181.730 E78.72687
G1 X171.730 Y199.673 E79.14589
G1 X170.953 Y199.673 E79.15871
G1 X10.327 Y39.047 E82.90957
G1 X10.327 Y38.270 E82.92239
G1 X23.917 Y24.680 E83.23974
G1 X24.106 Y24.870 F7800.000
G1 X28.381 Y20.594 E83.33957 F1500.000
G1 X28.936 Y20.594 E83.34873 F1500.000
G1 X189.406 Y181.064 E87.09593
G1 X189.406 Y181.619 E87.10509
G1 X171.619 Y199.406 E87.52044
G1 X171.064 Y199.406 E87.52960
G1 X10.594 Y38.936 E91.27680
G1 X10.594 Y38.381 E91.28595
G1 X24.064 Y24.912 E91.60048
G1 X24.253 Y25.101 F7800.000
G1 X28.492 Y20.862 E91.69947 F1500.000
G1 X28.825 Y20.862 E91.70497
G1 X30.259 Y22.296 E91.73846
G1 X189.138 Y181.175 E95.44850 F1500.000
G1 X189.138 Y181.508 E95.45400
G1 X171.508 Y199.138 E95.86569
G1 X171.175 Y199.138 E95.87118
G1 X10.862 Y38.825 E99.61472
G1 X10.862 Y38.492 E99.62021
G1 X24.211 Y25.144 E99.93192
G1 X24.400 Y25.333 F7800.000
G1 X28.603 Y21.130 E100.03007 F1500.000
G1 X28.714 Y21.130 E100.03190
G1 X188.870 Y181.286 E103.77177 F1500.000
G1 X188.870 Y181.397 E103.77360
G1 X171.397 Y198.870 E104.18163
G1 X171.286 Y198.870 E104.18346
G1 X11.130 Y38.714 E107.92333
G1 X11.130 Y38.603 E107.92516
G1 X24.357 Y25.376 E108.23404
G1 X24.558 Y25.576 F7800.000
G1 X28.659 Y21.476 E108.32980 F1500.000
G1 X29.869 Y22.686 E108.35806
G1 X188.524 Y181.341 E112.06288 F1500.000
G1 X171.341 Y198.524 E112.46412
G1 X11.476 Y38.659 E116.19721
G1 X24.516 Y25.619 E116.50170
G1 X24.945 Y25.680 F7800.000
G1 X24.705 Y25.808 F7800.000
G1 X28.659 Y21.855 E116.59402 F1500.000
G1 X29.656 Y22.852 E116.61732
G1 X188.145 Y181.341 E120.31827 F1500.000
G1 X171.341 Y198.145 E120.71066
G1 X11.855 Y38.659 E124.43490
G1 X24.663 Y25.851 E124.73399
G1 X24.852 Y26.040 F7800.000
G1 X28.659 Y22.233 E124.82288 F1500.000
G1 X29.443 Y23.018 E124.84120
G1 X187.767 Y181.341 E128.53827 F1500.000
G1 X171.341 Y197.767 E128.92183
G1 X12.233 Y38.659 E132.63722
G1 X24.810 Y26.082 E132.93090
G1 X98.976 Y125.023 F7800.000
G1 X12.612 Y38.659 E134.94761 F1500.000
G1 X28.659 Y22.612 E135.32232
G1 X29.197 Y23.151 E135.33489
G1 X187.388 Y181.341 E139.02888 F1500.000
G1 X171.341 Y197.388 E139.40358
G1 X99.018 Y125.065 E141.09243
G1 X171.398 Y197.161 F7800.000
G1 X12.839 Y38.602 E144.80555 F1500.000
G1 X13.029 Y38.412 E144.80999
G1 X171.588 Y196.971 E148.52312
G1 X171.778 Y196.781 E148.52756
G1 X13.219 Y38.222 E152.24069
G1 X13.409 Y38.032 E152.24513
G1 X171.968 Y196.591 E155.95825
G1 X172.158 Y196.401 E155.96270
G1 X13.599 Y37.842 E159.67582
G1 X13.789 Y37.652 E159.68027
G1 X172.348 Y196.211 E163.39339
G1 X172.538 Y196.021 E163.39784
G1 X13.979 Y37.462 E167.11096
G1 X14.169 Y37.273 E167.11541
G1 X172.727 Y195.831 E170.82853
G1 X172.917 Y195.641 E170.83298
G1 X14.359 Y37.083 E174.54610
G1 X14.549 Y36.893 E174.55055
G1 X173.107 Y195.451 E178.26367
G1 X173.297 Y195.262 E178.26811
G1 X14.738 Y36.703 E181.98124
G1 X14.928 Y36.513 E181.98568
G1 X173.487 Y195.072 E185.69880
G1 X173.677 Y194.882 E185.70325
G1 X15.118 Y36.323 E189.41637
G1 X15.308 Y36.133 E189.42082
G1 X173.867 Y194.692 E193.13394
G1 X174.057 Y194.502 E193.13839
G1 X15.498 Y35.943 E196.85151
G1 X15.688 Y35.753 E196.85596
G1 X174.247 Y194.312 E200.56908
G1 X174.437 Y194.122 E200.57353
G1 X15.878 Y35.563 E204.28665
G1 X16.068 Y35.373 E204.29110
G1 X174.627 Y193.932 E208.00422
G1 X174.816 Y193.742 E208.00867
G1 X16.258 Y35.184 E211.72179
G1 X16.448 Y34.994 E211.72623
G1 X175.006 Y193.552 E215.43936
G1 X175.196 Y193.362 E215.44380
G1 X16.638 Y34.804 E219.15692
G1 X16.827 Y34.614 E219.16137
G1 X175.386 Y193.173 E222.87449
G1 X175.576 Y192.983 E222.87894
G1 X17.017 Y34.424 E226.59206
G1 X17.207 Y34.234 E226.59651
G1 X175.766 Y192.793 E230.30963
G1 X175.956 Y192.603 E230.31408
G1 X17.397 Y34.044 E234.02720
G1 X17.587 Y33.854 E234.03165
G1 X176.146 Y192.413 E237.74477
G1 X176.336 Y192.223 E237.74922
G1 X17.777 Y33.664 E241.46234
G1 X17.967 Y33.474 E241.46679
G1 X176.526 Y192.033 E245.17991
G1 X176.716 Y191.843 E245.18435
G1 X18.157 Y33.284 E248.89748
G1 X18.347 Y33.095 E248.90192
G1 X176.905 Y191.653 E252.61504
G1 X177.095 Y191.463 E252.61949
G1 X18.537 Y32.905 E256.33261
G1 X18.727 Y32.715 E256.33706
G1 X177.285 Y191.273 E260.05018
G1 X177.475 Y191.084 E260.05463
G1 X18.916 Y32.525 E263.76775
G1 X19.106 Y32.335 E263.77220
G1 X177.665 Y190.894 E267.48532
G1 X177.855 Y190.704 E267.48977
G1 X19.296 Y32.145 E271.20289
G1 X19.486 Y31.955 E271.20734
G1 X178.045 Y190.514 E274.92046
G1 X178.235 Y190.324 E274.92490
G1 X19.676 Y31.765 E278.63803
G1 X19.866 Y31.575 E278.64247
G1 X178.425 Y190.134 E282.35560
G1 X178.615 Y189.944 E282.36004
G1 X20.056 Y31.385 E286.07316
G1 X20.246 Y31.195 E286.07761
G1 X178.805 Y189.754 E289.79073
G1 X178.994 Y189.564 E289.79518
G1 X20.436 Y31.006 E293.50830
G1 X20.626 Y30.816 E293.51275
G1 X179.184 Y189.374 E297.22587
G1 X179.374 Y189.184 E297.23032
G1 X20.816 Y30.626 E300.94344
G1 X21.005 Y30.436 E300.94789
G1 X179.564 Y188.995 E304.66101
G1 X179.754 Y188.805 E304.66546
G1 X21.195 Y30.246 E308.37858
G1 X21.385 Y30.056 E308.38302
G1 X179.944 Y188.615 E312.09615
G1 X180.134 Y188.425 E312.10059
G1 X21.575 Y29.866 E315.81371
G1 X21.765 Y29.676 E315.81816
G1 X180.324 Y188.235 E319.53128
G1 X180.514 Y188.045 E319.53573
G1 X21.955 Y29.486 E323.24885
G1 X22.145 Y29.296 E323.25330
G1 X180.704 Y187.855 E326.96642
G1 X180.894 Y187.665 E326.97087
G1 X22.335 Y29.106 E330.68399
G1 X22.525 Y28.917 E330.68844
G1 X181.083 Y187.475 E334.40156
G1 X181.273 Y187.285 E334.40601
G1 X22.715 Y28.727 E338.11913
G1 X22.905 Y28.537 E338.12358
G1 X181.463 Y187.095 E341.83670
G1 X181.653 Y186.906 E341.84114
G1 X23.094 Y28.347 E345.55427
G1 X23.284 Y28.157 E345.55871
G1 X181.843 Y186.716 E349.27183
G1 X182.033 Y186.526 E349.27628
G1 X23.474 Y27.967 E352.98940
G1 X23.664 Y27.777 E352.99385
G1 X182.223 Y186.336 E356.70697
G1 X182.413 Y186.146 E356.71142
G1 X23.854 Y27.587 E360.42454
G1 X24.044 Y27.397 E360.42899
G1 X182.603 Y185.956 E364.14211
G1 X182.793 Y185.766 E364.14656
G1 X24.234 Y27.207 E367.85968
G1 X24.424 Y27.017 E367.86413
G1 X182.983 Y185.576 E371.57725
G1 X183.172 Y185.386 E371.58170
G1 X24.614 Y26.828 E375.29482
G1 X24.804 Y26.638 E375.29926
G1 X183.362 Y185.196 E379.01239
G1 X183.552 Y185.006 E379.01683
G1 X24.994 Y26.448 E382.72995
G1 X25.183 Y26.258 E382.73440
G1 X183.742 Y184.816 E386.44752
G1 X183.932 Y184.627 E386.45197
G1 X25.373 Y26.068 E390.16509
G1 X25.563 Y25.878 E390.16954
G1 X184.122 Y184.437 E393.88266
G1 X184.312 Y184.247 E393.88711
G1 X25.753 Y25.688 E397.60023
G1 X25.943 Y25.498 E397.60468
G1 X184.502 Y184.057 E401.31780
G1 X184.692 Y183.867 E401.32225
G1 X26.133 Y25.308 E405.03537
G1 X26.323 Y25.118 E405.03981
G1 X184.882 Y183.677 E408.75294
G1 X185.072 Y183.487 E408.75738
G1 X26.513 Y24.928 E412.47051
G1 X26.703 Y24.739 E412.47495
G1 X185.261 Y183.297 E416.18807
G1 X185.451 Y183.107 E416.19252
G1 X26.893 Y24.549 E419.90564
G1 X27.083 Y24.359 E419.91009
G1 X185.641 Y182.917 E423.62321
G1 X185.831 Y182.727 E423.62766
G1 X27.273 Y24.169 E427.34078
G1 X27.462 Y23.979 E427.34523
G1 X186.021 Y182.538 E431.05835
G1 X186.211 Y182.348 E431.06280
G1 X27.652 Y23.789 E434.77592
G1 X27.842 Y23.599 E434.78037
G1 X186.401 Y182.158 E438.49349
G1 X186.591 Y181.968 E438.49793
G1 X28.032 Y23.409 E442.21106
G1 X28.222 Y23.219 E442.21550
G1 X186.781 Y181.778 E445.92862
G1 X186.971 Y181.588 E445.93307
G1 X28.412 Y23.029 E449.64619
G1 X28.602 Y22.839 E449.65064
G1 X187.161 Y181.398 E453.36376
M104 S205 ; set temperature
G1 F6240
G1 X176.130 Y170.367 E447.66376
G1 E447.36376 F2400.00000
G92 E0
G1 Z0.350 F7800.000
G1 X97.469 Y123.349 F7800.000
G1 E6.00000 F2400.00000
G1 X12.779 Y38.659 E9.51582 F3000.000
G1 X28.659 Y22.779 E10.17505
G1 X30.904 Y25.024 E10.26824
G1 X187.221 Y181.341 E16.75756 F3000.000
G1 X171.341 Y197.221 E17.41679
G1 X97.512 Y123.392 E20.48172
G1 X97.259 Y123.644 F7800.000
G1 X12.274 Y38.659 E24.00978 F3000.000
G1 X28.659 Y22.274 E24.68998
G1 X31.156 Y24.771 E24.79365
G1 X187.726 Y181.341 E31.29345 F3000.000
G1 X171.341 Y197.726 E31.97365
G1 X97.302 Y123.687 E35.04730
G1 X97.049 Y123.939 F7800.000
G1 X11.769 Y38.659 E38.58760 F3000.000
G1 X28.659 Y21.769 E39.28876
G1 X31.409 Y24.519 E39.40292
G1 X188.231 Y181.341 E45.91320 F3000.000
G1 X171.341 Y198.231 E46.61436
G1 X97.092 Y123.982 E49.69673
G1 X96.910 Y124.163 F7800.000
G1 X11.405 Y38.659 E51.25821 F3000.000
G1 X28.659 Y21.405 E51.57329
G1 X31.590 Y24.337 E51.62683
G1 X188.595 Y181.341 E54.49403 F3000.000
G1 X171.341 Y198.595 E54.80911
G1 X96.952 Y124.206 E56.16759
G1 X97.013 Y123.777 F7800.000
G1 X171.266 Y196.918 F7800.000
G1 X186.918 Y181.266 E56.81790 F1500.000
G1 X186.666 Y181.013 E56.82839
G1 X171.013 Y196.666 E57.47870
G1 X170.760 Y196.413 E57.48920
G1 X186.413 Y180.760 E58.13950
G1 X186.160 Y180.507 E58.15000
G1 X170.507 Y196.160 E58.80031
G1 X170.255 Y195.907 E58.81081
G1 X185.907 Y180.255 E59.46111
G1 X185.655 Y180.002 E59.47161
G1 X170.002 Y195.655 E60.12191
G1 X169.749 Y195.402 E60.13241
G1 X185.402 Y179.749 E60.78272
G1 X185.149 Y179.497 E60.79322
G1 X169.497 Y195.149 E61.44352
G1 X169.244 Y194.897 E61.45402
G1 X184.897 Y179.244 E62.10433
G1 X184.644 Y178.991 E62.11482
G1 X168.991 Y194.644 E62.76513
G1 X168.739 Y194.391 E62.77563
G1 X184.391 Y178.739 E63.42593
G1 X184.139 Y178.486 E63.43643
G1 X168.486 Y194.139 E64.08674
G1 X168.233 Y193.886 E64.09724
G1 X183.886 Y178.233 E64.74754
G1 X183.633 Y177.981 E64.75804
G1 X167.981 Y193.633 E65.40834
G1 X167.728 Y193.381 E65.41884
G1 X183.381 Y177.728 E66.06915
G1 X183.128 Y177.475 E66.07965
G1 X167.475 Y193.128 E66.72995
G1 X167.223 Y192.875 E66.74045
G1 X182.875 Y177.223 E67.39076
G1 X182.622 Y176.970 E67.40125
G1 X166.970 Y192.622 E68.05156
G1 X166.717 Y192.370 E68.06206
G1 X182.370 Y176.717 E68.71236
G1 X182.117 Y176.464 E68.72286
G1 X166.464 Y192.117 E69.37317
G1 X166.212 Y191.864 E69.38367
G1 X181.864 Y176.212 E70.03397
G1 X181.612 Y175.959 E70.04447
G1 X165.959 Y191.612 E70.69478
G1 X165.706 Y191.359 E70.70527
G1 X181.359 Y175.706 E71.35558
G1 X181.106 Y175.454 E71.36608
G1 X165.454 Y191.106 E72.01638
G1 X165.201 Y190.854 E72.02688
G1 X180.854 Y175.201 E72.67719
G1 X180.601 Y174.948 E72.68768
G1 X164.948 Y190.601 E73.33799
G1 X164.696 Y190.348 E73.34849
G1 X180.348 Y174.696 E73.99879
G1 X180.096 Y174.443 E74.00929
G1 X164.443 Y190.096 E74.65960
G1 X164.190 Y189.843 E74.67010
G1 X179.843 Y174.190 E75.32040
G1 X179.590 Y173.938 E75.33090
G1 X163.938 Y189.590 E75.98121
G1 X163.685 Y189.338 E75.99170
G1 X179.338 Y173.685 E76.64201
G1 X179.085 Y173.432 E76.65251
G1 X163.432 Y189.085 E77.30281
G1 X163.179 Y188.832 E77.31331
G1 X178.832 Y173.179 E77.96362
G1 X178.579 Y172.927 E77.97411
G1 X162.927 Y188.579 E78.62442
G1 X162.674 Y188.327 E78.63492
G1 X178.327 Y172.674 E79.28522
G1 X178.074 Y172.421 E79.29572
G1 X162.421 Y188.074 E79.94603
G1 X162.169 Y187.821 E79.95653
G1 X177.821 Y172.169 E80.60683
G1 X177.569 Y171.916 E80.61733
G1 X161.916 Y187.569 E81.26764
G1 X161.663 Y187.316 E81.27813
G1 X177.316 Y171.663 E81.92844
G1 X177.063 Y171.411 E81.93894
G1 X161.411 Y187.063 E82.58924
G1 X161.158 Y186.811 E82.59974
G1 X176.811 Y171.158 E83.25005
G1 X176.558 Y170.905 E83.26054
G1 X160.905 Y186.558 E83.91085
G1 X160.653 Y186.305 E83.92135
G1 X176.305 Y170.653 E84.57165
G1 X176.053 Y170.400 E84.58215
G1 X160.400 Y186.053 E85.23246
G1 X160.147 Y185.800 E85.24296
G1 X175.800 Y170.147 E85.89326
G1 X175.547 Y169.895 E85.90376
G1 X159.895 Y185.547 E86.55407
G1 X159.642 Y185.294 E86.56456
G1 X175.294 Y169.642 E87.21487
G1 X175.042 Y169.389 E87.22537
G1 X159.389 Y185.042 E87.87567
G1 X159.136 Y184.789 E87.88617
G1 X174.789 Y169.136 E88.53648
G1 X174.536 Y168.884 E88.54698
G1 X158.884 Y184.536 E89.19728
G1 X158.631 Y184.284 E89.20778
G1 X174.284 Y168.631 E89.85808
G1 X174.031 Y168.378 E89.86858
G1 X158.378 Y184.031 E90.51889
G1 X158.126 Y183.778 E90.52939
G1 X173.778 Y168.126 E91.17969
G1 X173.526 Y167.873 E91.19019
G1 X157.873 Y183.526 E91.84050
G1 X157.620 Y183.273 E91.85099
G1 X173.273 Y167.620 E92.50130
G1 X173.020 Y167.368 E92.51180
G1 X157.368 Y183.020 E93.16210
G1 X157.115 Y182.768 E93.17260
G1 X172.768 Y167.115 E93.82291
